storage/app/icons/phosphoricons/light/plus-square-light.svg

<svg xmlns="http://www.w3.org/2000/svg" fill="currentColor" viewBox="0 0 256 256"><path d="M208 34H48a14 14 0 0 0-14 14v160a14 14 0 0 0 14 14h160a14 14 0 0 0 14-14V48a14 14 0 0 0-14-14m2 174a2 2 0 0 1-2 2H48a2 2 0 0 1-2-2V48a2 2 0 0 1 2-2h160a2 2 0 0 1 2 2Zm-36-80a6 6 0 0 1-6 6h-34v34a6 6 0 0 1-12 0v-34H88a6 6 0 0 1 0-12h34V88a6 6 0 0 1 12 0v34h34a6 6 0 0 1 6 6"/></svg>

<svg xmlns="http://www.w3.org/2000/svg" viewBox="0 0 256 256" fill="currentColor"><path d="M208,34H48A14,14,0,0,0,34,48V208a14,14,0,0,0,14,14H208a14,14,0,0,0,14-14V48A14,14,0,0,0,208,34Zm2,174a2,2,0,0,1-2,2H48a2,2,0,0,1-2-2V48a2,2,0,0,1,2-2H208a2,2,0,0,1,2,2Zm-36-80a6,6,0,0,1-6,6H134v34a6,6,0,0,1-12,0V134H88a6,6,0,0,1,0-12h34V88a6,6,0,0,1,12,0v34h34A6,6,0,0,1,174,128Z"/></svg>
